!!!OTL: Auswandererlied (170a), S. 368
!!!id: T0343
**kern
*clefG2
*k[b-e-]
*B-:
{4f
=1
4.f
8b-
16b-
16a
8g
8.g
16f
=2
2f}
4r
=3
{4f
=4
4.f
8b-
16b-
16a
8g
8.g
16f
=5
2f}
8r
=6
{8f
8f
8f
=7
4b-
4b-
4cc
4ee-
=8
2dd}
8r
=9
{8cc
8b-
8a
=10
4f
4cc
4b-
4a
=11
2b-}
4r
==
*-
!!!minrhy: 16
!!!meters: 4/4 ]  ZZ[4
!!!cut: Auswandererlied (170a), S. 368
!!!reg: Luxemburg
!!!trd: Singendes Volk, Esch-Alzette, 1937 posth.
!!!rhy1: X__  X__.X_XXX_X_.X  X___0__
!!!rhy2: X__  X__.X_XXX_X_.X  X___0_
!!!key: T0343  16 Bb 4/4 ]  ZZ[4
!!!mod: HEPTATONIK IONISCH]  AMBITUS[7b
!!!kad: -5-531
!!!akz: -51-5_-51-5_123_-511_
!!!fot: 'a__a__b__aw_
!!!for: 'a__av_b__bv_
!!!fok: '^__^__/__Vd_
!! PHRAS[AUFTAKTIG]
!!!fkt: Abschieds- und Wanderlieder, Heimatlieder
!!!bem1: Junglinster, Vater des Verfassers, um 1890;
!!!bem2: (170b)- StraPen, hhh Nikolaus Lersch, Liederheft, um 1850;
!!!bem3: (170c)- StraPen, hhh Johann Schmitt, 1855-1865
!! THILL, Mathias:
!! PR[16] 2K[0] 2G[8] 3K[16] 3G[8] 4A[5] 4Ü[0] 5A[0] 6K[0] 6G[0]
!! 7K[0] 7G[0] 8A[0] MEHR[0] SI[37] ABS[38] SR[8] SP[29]
!! ST[9] 2k[11] 2g[29] 3k[3] 3g[0] 4d[3] 4ü[0] 5d[3] 6k[0] 6g[0]
!! 7k[0] 7g[0] 8d[0] mehr[0] si[47] dm[-10] sr[39] sp[8]
!! 1F[2] 2F[32] 3F[56] 4F[5] LF[0] 2P[2] 3P[2] 4P[0] TRI[0] DF[6] AB[41]
!! TF[0] U3K[0] U3[0] U4[0] U4Ü[0] U5[3] U6K[0] U6[0] U7K[0] U7[0]
!! N1[15] N2K[0] N2[21] N3K[0] N3[21] N4[21] N4Ü[0] N5[15] N6K[0] N6[5]
!!!n7k: 0] N7[0] O1[0] O2K[0] O2[0] O3K[0] O3[0] HÖ[0
